X: 1517
T: Nişâburek Aranağme (Düyek)
C: ?
O: Turkey
F: http://compmusic.upf.edu/node/140
N: nisaburek--aranagme--duyek--1--
N: makam= nisaburek
N: form= aranagme
N: usul= duyek = 8/4
M: 8/4
L: 1/16
K: C ^9/8f ^3/4c ^3/4g 
Q: 1/4=156
%%MIDI tuningsystem comma53
AB AB c2 d2 c3A B2 A2  | f3d f2 e2 =gf ed ^c^3/4B c2  | 
w:  ARANAĞME  |   | 
f2 =g4 gf g3f g2 a2  | =g2 f2 e2 d2 c2 B2 A4  | \
w:   |   | 
AB AB c2 d2 c3A B2 A2  | 
w:  ARANAĞME  | 
f3d f2 e2 =gf ed ^c^3/4B c2  | f2 =g4 gf g3f g2 a2  | \
w:   |   | 
=g2 f2 e2 d2 c2 B2 A4  | 
w:   | 
|


